img/tabs_clock.svg

<svg width="32" height="32" viewBox="0 0 32 32" fill="none" xmlns="http://www.w3.org/2000/svg">
<path d="M30.7227 9.77083C29.0356 5.83749 26.1687 2.97689 22.2025 1.28534C20.2202 0.4399 18.1434 0.00805664 15.9737 0.00805664C13.8044 0.00805664 11.7429 0.435821 9.76277 1.28534C5.82944 2.9724 2.9498 5.83117 1.25971 9.77083C0.41281 11.7446 0 13.8124 0 15.9817C0 18.1514 0.41281 20.2364 1.25971 22.2106C2.9498 26.1502 5.8298 29.0261 9.76277 30.7136C11.7433 31.5631 13.8043 31.9905 15.9737 31.9905C18.1431 31.9905 20.2202 31.5586 22.2022 30.7136C26.1684 29.022 29.0353 26.1435 30.7228 22.2106C31.5722 20.2301 32 18.1514 32 15.9817C32 13.8124 31.5726 11.7513 30.7227 9.77083ZM28.1686 23.0504C26.9126 25.2044 25.1919 26.9132 23.0248 28.1766C20.8708 29.4326 18.5107 30.066 15.9741 30.066C14.0671 30.066 12.2475 29.6988 10.5152 28.9463C8.78301 28.1942 7.28737 27.2054 6.03624 25.9547C4.7851 24.7035 3.78928 23.1933 3.04465 21.4581C2.30222 19.7292 1.94243 17.8891 1.94243 15.9818C1.94243 13.4448 2.56575 11.0966 3.81469 8.94861C5.06808 6.79274 6.78912 5.0821 8.94092 3.82233C11.0923 2.56262 13.4371 1.93255 15.9737 1.93255C18.5107 1.93255 20.8704 2.56633 23.0244 3.82233C25.1915 5.08581 26.9085 6.7964 28.1682 8.94855C29.4279 11.1003 30.0576 13.4448 30.0576 15.9817C30.0576 18.5187 29.4321 20.8829 28.1686 23.0504Z" fill="url(#paint0_linear)"/>
<path d="M16.9884 15.8425V6.77957C16.9884 6.23724 16.5159 5.7998 15.9735 5.7998C15.4662 5.7998 15.0112 6.23724 15.0112 6.77957V15.9824C15.0112 16 15.0463 16.0702 15.0463 16.1225C15.0112 16.4375 15.099 16.6999 15.3087 16.91L20.5403 22.1412C20.8903 22.4913 21.5375 22.4913 21.8873 22.1412C22.2896 21.7388 22.2632 21.155 21.8873 20.7765L16.9884 15.8425Z" fill="url(#paint1_linear)"/>
<defs>
<linearGradient id="paint0_linear" x1="16" y1="0.00805664" x2="16" y2="31.9905" gradientUnits="userSpaceOnUse">
<stop stop-color="#50CCF8"/>
<stop offset="1" stop-color="#19B4EA"/>
</linearGradient>
<linearGradient id="paint1_linear" x1="18.5952" y1="5.7998" x2="18.5952" y2="22.4037" gradientUnits="userSpaceOnUse">
<stop stop-color="#50CCF8"/>
<stop offset="1" stop-color="#19B4EA"/>
</linearGradient>
</defs>
</svg>

<svg width="32" height="32" fill="none" xmlns="http://www.w3.org/2000/svg"><path d="M30.723 9.77c-1.687-3.933-4.554-6.793-8.52-8.485a15.727 15.727 0 0 0-6.23-1.277c-2.169 0-4.23.428-6.21 1.277C5.829 2.972 2.95 5.831 1.26 9.771A15.57 15.57 0 0 0 0 15.98c0 2.17.413 4.255 1.26 6.23 1.69 3.94 4.57 6.815 8.503 8.503 1.98.85 4.041 1.277 6.21 1.277 2.17 0 4.247-.432 6.23-1.277 3.965-1.692 6.832-4.57 8.52-8.503.85-1.98 1.277-4.06 1.277-6.23 0-2.169-.427-4.23-1.277-6.21zm-2.554 13.28c-1.256 2.154-2.977 3.863-5.144 5.127-2.154 1.256-4.514 1.889-7.05 1.889-1.908 0-3.727-.367-5.46-1.12-1.732-.752-3.228-1.74-4.479-2.991-1.25-1.252-2.247-2.762-2.991-4.497-.743-1.729-1.103-3.569-1.103-5.476 0-2.537.624-4.885 1.873-7.033A14.044 14.044 0 0 1 8.94 3.822c2.151-1.26 4.496-1.89 7.033-1.89s4.896.634 7.05 1.89a14.08 14.08 0 0 1 5.144 5.127c1.26 2.151 1.89 4.496 1.89 7.033s-.626 4.9-1.89 7.068z" fill="url(#paint0_linear)"/><path d="M16.988 15.842V6.78c0-.543-.472-.98-1.014-.98a.986.986 0 0 0-.963.98v9.202c0 .018.035.088.035.14a.915.915 0 0 0 .263.788l5.231 5.231c.35.35.998.35 1.347 0 .403-.402.376-.986 0-1.364l-4.899-4.935z" fill="url(#paint1_linear)"/><defs><linearGradient id="paint0_linear" x1="16" y1=".008" x2="16" y2="31.991" gradientUnits="userSpaceOnUse"><stop stop-color="#50CCF8"/><stop offset="1" stop-color="#19B4EA"/></linearGradient><linearGradient id="paint1_linear" x1="18.595" y1="5.8" x2="18.595" y2="22.404" gradientUnits="userSpaceOnUse"><stop stop-color="#50CCF8"/><stop offset="1" stop-color="#19B4EA"/></linearGradient></defs></svg>
